symbolic/64x64/places/folder-deeporange-applications.svg

<svg xmlns="http://www.w3.org/2000/svg" width="64" height="64" version="1"><rect style="opacity:.2" width="56" height="36" x="4" y="22" rx="2.8" ry="2.8"/><path style="fill:#e95420" d="M4 46.2C4 47.751 5.249 49 6.8 49h50.4c1.551 0 2.8-1.249 2.8-2.8V15.8c0-1.551-1.249-2.8-2.8-2.8H32c-4.2 0-5.6-6-9.8-6H6.8A2.794 2.794 0 0 0 4 9.8"/><rect style="opacity:.2" width="56" height="36" x="4" y="20" rx="2.8" ry="2.8"/><rect style="fill:#e4e4e4" width="48" height="22" x="8" y="16" rx="2.8" ry="2.8"/><rect style="fill:#eb6637" width="56" height="36" x="4" y="21" rx="2.8" ry="2.8"/><path style="opacity:.1;fill:#fff" d="M6.8 7C5.25 7 4 8.25 4 9.8v1.001A2.795 2.795 0 0 1 6.8 8H22.2c4.2 0 5.601 6 9.801 6h25.199A2.796 2.796 0 0 1 60 16.801v-1A2.796 2.796 0 0 0 57.199 13H32c-4.2 0-5.601-6-9.801-6z"/><path style="fill:#522413" d="m36.072 49-1.084-4h-6.162l-1.046 4h-4.779c1.095-3.942 2.203-7.528 3.323-10.76A737.04 737.04 0 0 1 29.573 29h5.005a225.829 225.829 0 0 1 3.249 9.338A178.386 178.386 0 0 1 41.002 49zm-4.109-16.123L29.686 41h4.518z"/></svg>

<svg xmlns="http://www.w3.org/2000/svg" width="64" height="64" version="1">
 <rect style="opacity:0.2" width="56" height="36" x="4" y="22" rx="2.8" ry="2.8"/>
 <path style="fill:#e95420" d="M 4,46.2 C 4,47.751 5.2488,49 6.8,49 H 57.2 C 58.751,49 60,47.751 60,46.2 V 15.8 C 60,14.249 58.751,13 57.2,13 H 32 C 27.8,13 26.4,7 22.2,7 H 6.8 C 5.2488,7 4,8.2488 4,9.8"/>
 <rect style="opacity:0.2" width="56" height="36" x="4" y="20" rx="2.8" ry="2.8"/>
 <rect style="fill:#e4e4e4" width="48" height="22" x="8" y="16" rx="2.8" ry="2.8"/>
 <rect style="fill:#eb6637" width="56" height="36" x="4" y="21" rx="2.8" ry="2.8"/>
 <path style="opacity:0.1;fill:#ffffff" d="M 6.8008,7 C 5.2496,7 4,8.2496 4,9.8008 V 10.801 C 4,9.2496 5.2496,8 6.8008,8 H 22.199 C 26.399,8 27.8,14 32,14 H 57.199 C 58.75,14 60,15.25 60,16.801 V 15.801 C 60,14.25 58.75,13 57.199,13 H 32 C 27.8,13 26.399,7 22.199,7 Z"/>
 <path style="fill:#522413" d="M 36.072,49 34.988,45 H 28.826 L 27.78,49 H 23.001 C 24.096,45.058 25.204,41.472 26.324,38.24 27.445,34.988 28.527,31.908 29.573,29 H 34.578 C 35.673,31.929 36.757,35.042 37.827,38.338 38.923,41.612 39.98,45.165 41.002,49 Z M 31.963,32.877 29.686,41 H 34.204 Z"/>
</svg>
